X: 36
T: Mazurka in B Major, Op. 56, No. 1
C: Frederic Chopin
%%abc-version 2.0
%%abcx-abcm2ps-target-version 5.9.1 (29 Sep 2008)
%%abc-creator hum2abc beta
%%abcx-conversion-date 2021/01/17 12:55:00
%%abc-edited-by Craig Stuart Sapp
%%abcx-initial-encoding-date 2005/03/20/
%%gracespace 0 6 6
%%humdrum-veritas 2414723354
%%humdrum-veritas-data 2236344908
%%linebreak <none>
%%barnumbers 0
L: 1/8
M: 3/4
N: Derived from mazurka56-1.krn
Q: "Allegro non tanto" 1/4=144
%%staves {1 2}
V: 1 clef=treble
V: 2 clef=bass
K: B
[V:1] G4F2 & E6 | 
[V:2] ECG,2A,2 | 
[V:1] F>FF2F2 & D6 | 
[V:2] B,A,B,2C2 | 
[V:1] F>FF2E2 & =D6 | 
[V:2] =DB,F,2G,2 | 
[V:1] E>EE2E2 & C6 | 
[V:2] =A,G,A,2B,2 | 
[V:1] E>EE3=D- & =C6 | 
[V:2] =C=A,E,2F,2 | 
[V:1] .D>EF2=G2 & B,6 | 
[V:2] =G,6 & z2[=G,,4=D,4]- | 
[V:1] E>F=G2[F2=A2] & =C6 | 
[V:2] =A,6 & [G,,2D,2][=G,,4=D,4]- | 
[V:1] B>=dd4 & =G4=D2 | 
[V:2] B,6 & [G,,2D,2][=G,,4=D,4]- | 
[V:1] E>EE3=D- & =C6 | 
[V:2] =C=A,E,2F,2 & [G,,6D,6]- | 
[V:1] D>EF2=G2 & B,6 | 
[V:2] =G,6 & [G,,2D,2][=G,,4=D,4]- | 
[V:1] E>F=G2[F2=A2] & =C6 | 
[V:2] =A,6 & [G,,2D,2][=G,,4=D,4]- | 
[V:1] B>c^^c2d2 & [^E4B4]F2 | 
[V:2] [G,,2D,2B,2]=G,,2F,,2- | 
[V:1] =ecG2A2 & [=E2G2]E4 | 
[V:2] .[F,,,2F,,2]!accent!F,3F,[K:clef=treble] | 
[V:1] Fz/G/A2B2 & D2D4 | 
[V:2] F,z/F/!accent!F4- & F,4F,2- | 
[V:1] Gz/A/[G2B2][A2c2] & E2E4 | 
[V:2] Fz/F/!accent!F4[K:clef=bass] & F,4F,2 | 
[V:1] [DBd]z/[F/B/f/][F2B2f2][G2B2g2] | 
[V:2] B,, z/ D/D2E2 | 
[V:1] [FBf]z/[D/F/d/][D2G2B2]!accent![E2G2e2] | 
[V:2] Dz/B,/G,2!accent!C2 | 
[V:1] [DGd]z/[D/G/B/][E2G2][D2B2] | 
[V:2] z2B,4 & B,z/G,/E,2[B,,2F,2] | 
[V:1] [EFc]z/d/[E3F3c3][DB] | 
[V:2] A,z/F,,/A,3[B,,B,] | 
[V:1] [DB] z/ G/G2AG & z2E4- | 
[V:2] z2B,2CB, & [B,,B,] zE,4 | 
[V:1] [EF]z/c/[E2F2c2][E2F2d2] | 
[V:2] z2A,4 & [F,A,]z/F,,/A,2F,,2 | 
[V:1] [D2B2][E4G4] | 
[V:2] [B,,2B,2][E,2B,2]z2 | 
[V:1] G4F2 & E6 | 
[V:2] ECG,2A,2 | 
[V:1] F>FF2F2 & D6 | 
[V:2] B,A,B,2C2 | 
[V:1] F>FF2E2 & =D6 | 
[V:2] B,B,F,2G,2 | 
[V:1] E>EE2E2 & C6 | 
[V:2] =A,G,A,2B,2 | 
[V:1] E>EE3=D- & =C6 | 
[V:2] =C=A,E,2F,2 | 
[V:1] D>EF2=G2 & B,6 | 
[V:2] =G,6 & z2[=G,,4=D,4]- | 
[V:1] E>F=G2[F2=A2] & =C6 | 
[V:2] =A,6 & [G,,2D,2][=G,,4=D,4]- | 
[V:1] B>=dd4 & =G4=D2 | 
[V:2] B,6 & [G,,2D,2][=G,,4=D,4] | 
[V:1] E>EE3=D- & =C6 | 
[V:2] =C=A,E,2F,2 & [=G,,6=D,6]- | 
[V:1] D>EF2=G2 & B,6 | 
[V:2] =G,6 & [G,,2D,2][=G,,4=D,4]- | 
[V:1] E>F=G2[F2=A2] & =C6 | 
[V:2] =A,6 & [G,,2D,2][=G,,4=D,4]- | 
[V:1] B>c^^c2d2 & ^E4F2 | 
[V:2] [G,,2D,2B,2]=G,,2F,,2- | 
[V:1] =ecG2A2 & [=E2G2]E4 | 
[V:2] .[F,,,2F,,2]F,3F,[K:clef=treble] | 
[V:1] Fz/G/A2B2 & D2D4 | 
[V:2] F,z/F/!accent!F4- & F,4F,2- | 
[V:1] Gz/A/[G2B2][A2c2] & E2E4 | 
[V:2] Fz/F/!accent!F4[K:clef=bass] & F,4F,2 | 
[V:1] [DBd]z/[F/B/f/][F2B2f2][G2B2g2] | 
[V:2] B,, z/ D/D2E2 | 
[V:1] [FBf]z/[D/F/d/][D2G2B2][E2G2e2] | 
[V:2] Dz/B,/G,2C2 | 
[V:1] [DGd]z/[D/G/B/][E2G2][D2B2] | 
[V:2] z2B,4 & B,z/G,/E,2[B,,2F,2] | 
[V:1] [EFc]z/d/[E3F3c3][DB] | 
[V:2] A,z/F,,/A,3[B,,B,] | 
[V:1] [DB] z/ G/G2AG & z2E4- | 
[V:2] z2B,2CB, & .[B,,B,] zE,4 | 
[V:1] [EF]z/c/[E2F2c2][E2F2d2] | 
[V:2] z2A,4 & [F,A,]z/F,,/A,2F,,2 | 
[V:1] [D2B2]=A4 & z2D2_E2- | 
[V:2] [B,,4B,4][_C,2F,2] | 
[V:1]  [K:Eb] BcBfea & E2z2z2 | 
[V:2]  [K:Eb] G,2z2z2 & B,,2z2z2 | 
[V:1] gc'bd'e'c' & z2[B,2E2G2]z2 | 
[V:2] z2z2B,,2 | 
[V:1] bc'bgaf & z2[B,2D2A2]z2 | 
[V:2] z2z2B,,2 | 
[V:1] gdedec | 
[V:2] E,2[K:clef=treble]E4[K:clef=bass] & z2[B,2G2][=A,2^F2] | 
[V:1] BcBfea | 
[V:2] z2[B,2E2G2]E,2 | 
[V:1] gc'bd'e'c' | 
[V:2] z2[B,2G2]E,2 | 
[V:1] bc'bgaf & z2[B,2D2A2]z2 | 
[V:2] z2z2E,2 | 
[V:1] gdec_dF | 
[V:2] z2[B,2_D2G2]E,2 | 
[V:1] EFEBA_d | 
[V:2] z2[E,2C2]A,,2 | 
[V:1] cfegaf | 
[V:2] z2[E,2C2]A,,2 | 
[V:1] efec_dB | 
[V:2] z2[E,2G,2_D2]A,,2 | 
[V:1] cGAGAF | 
[V:2] z2A,4 & z2[E,2C2][=D,2=B,2] | 
[V:1] EFEBA_d | 
[V:2] z2[E,2A,2C2]A,,2 | 
[V:1] cfegaf | 
[V:2] z2[E,2C2]A,,2 | 
[V:1] efec_dB | 
[V:2] z2[E,2G,2_D2]A,,2- | 
[V:1] cGAGFc & z2.E2=D2 | 
[V:2] A,,2[F,2C2][B,,2A,2] | 
[V:1] BcBfea | 
[V:2] z2[B,2G2]E,2 | 
[V:1] gc'bd'e'c' | 
[V:2] z2[B,2G2]E,2 | 
[V:1] bc'bgaf | 
[V:2] z2[B,2D2A2]E,2 | 
[V:1] gdedec | 
[V:2] z2[K:clef=treble][B,2G2][=A,2^F2][K:clef=bass] & z2E4 | 
[V:1] BcBfea | 
[V:2] z2[B,2G2]E,2 | 
[V:1] gc'bd'e'c' | 
[V:2] z2[B,2G2]E,2 | 
[V:1] bc'bgaf | 
[V:2] z2[B,2D2A2]E,2 | 
[V:1] gdec_dF | 
[V:2] z2[B,2_D2G2]E,2 | 
[V:1] EFEBA_d | 
[V:2] z2[E,2A,2C2]A,,2 | 
[V:1] cfegaf | 
[V:2] z2[E,2C2]A,,2 | 
[V:1] efec_dB | 
[V:2] z2[E,2G,2_D2]A,,2 | 
[V:1] cGAGAF | 
[V:2] z2A,4 & z2[E,2C2][=D,2=B,2] | 
[V:1] EFEBA_d | 
[V:2] z2[E,2A,2C2]A,,2 | 
[V:1] cfegaf | 
[V:2] z2[E,2C2]A,,2 | 
[V:1] ec_dfec | 
[V:2] z6 | 
[V:1] AB_dcAE | 
[V:2] z6 | 
[V:1] _FAECFA | 
[V:2] z6 | 
[V:1] EC_FAEC | 
[V:2] z6 | 
[V:1] _FAE_CFA | 
[V:2] z6 | 
[V:1] E_C_FAEC | 
[V:2] z6 | 
[V:1]  [K:B] G4F2 & E6 | 
[V:2]  [K:B] ECG,2A,2 | 
[V:1] F>FF2F2 & D6 | 
[V:2] B,A,B,2C2 | 
[V:1] F>FF2E2 & =D6 | 
[V:2] =DB,F,2G,2 | 
[V:1] E>EE2E2 & C6 | 
[V:2] =A,G,A,2B,2 | 
[V:1] E>EE3=D- & =C6 | 
[V:2] =C=A,E,2F,2 | 
[V:1] D>EF2=G2 & B,6 | 
[V:2] =G,6 & z2[=G,,4=D,4]- | 
[V:1] E>F=G2[F2=A2] & =C6 | 
[V:2] =A,6 & [G,,2D,2][=G,,4=D,4]- | 
[V:1] B>=dd4 & =G4=D2 | 
[V:2] B,6 & [G,,2D,2][=G,,4=D,4]- | 
[V:1] E>EE3=D- & =C6 | 
[V:2] =C=A,E,2F,2 & [G,,6D,6]- | 
[V:1] D>EF2=G2 & B,6 | 
[V:2] =G,6 & [G,,2D,2][=G,,4=D,4]- | 
[V:1] E>F=G2[F2=A2] & =C6 | 
[V:2] =A,6 & [G,,2D,2][=G,,4=D,4]- | 
[V:1] B>c^^c2d2 & B6 | 
[V:2] [G,,2D,2B,2]=G,,2F,,2- | 
[V:1] =ecG2A2 & [=E2G2]E4 | 
[V:2] [F,,,2F,,2]F,3F,[K:clef=treble] | 
[V:1] Fz/G/A2B2 & D2D4 | 
[V:2] F,z/F/!accent!F4- & F,4F,2- | 
[V:1] Gz/A/[G2B2][A2c2] & E2E4 | 
[V:2] Fz/F/!accent!F4[K:clef=bass] & F,4F,2 | 
[V:1] [DBd]z/[F/B/f/][F2B2f2]!accent![G2B2g2] | 
[V:2] .B,, z/ D/D2!accent!E2 | 
[V:1] [FBf]z/[D/F/d/][D2G2B2]!accent![E2G2e2] | 
[V:2] Dz/B,/G,2!accent!C2 | 
[V:1] [DGd]z/[D/G/B/][E2G2][D2B2] | 
[V:2] z2B,4 & B,z/G,/E,2[B,,2F,2] | 
[V:1] [EFc]z/d/[E3F3c3][DB] | 
[V:2] A,z/F,,/A,3.[B,,B,] | 
[V:1] Bz/G/G2AG & D2E4 | 
[V:2] z2B,2CB, & .[B,,B,] zE,4 | 
[V:1] .Fz/c/[E2F2c2][E2F2d2] & E2z2z2 | 
[V:2] z2A,4 & .[F,A,]z/F,,/A,2F,,2 | 
[V:1] B4=A2 & D2=D>E=C2- | 
[V:2] F,2=G,2F,2- & B,,2-B,,>=C,=D,2- | 
[V:1]  [K:G] DEDAGc & C2z2z2 | 
[V:2]  [K:G] [D,2F,2][D,2G,2B,2]G,,2 | 
[V:1] Bedfge | 
[V:2] z2[D,2B,2]G,,2 | 
[V:1] dedBcA | 
[V:2] z2[D,2F,2C2]G,,2 | 
[V:1] BFGFGE | 
[V:2] z2G,4 & z2[D,2B,2][^C,2^A,2] | 
[V:1] DEDAGc | 
[V:2] z2[D,2B,2]G,,2 | 
[V:1] Bedfge | 
[V:2] z2[D,2B,2]G,,2 | 
[V:1] dedBcA | 
[V:2] z2[D,2F,2C2]G,,2- | 
[V:1] BFGFEB & z2D2^C2 | 
[V:2] G,,2[E,2B,2][A,,2G,2] | 
[V:1] ABAedg | 
[V:2] z2[A,2F2]D,2 | 
[V:1] fba^c'd'b | 
[V:2] z2[A,2F2]D,2 | 
[V:1] abafge | 
[V:2] z2[A,2^C2G2]D,2 | 
[V:1] f^cdcdB | 
[V:2] z2D4 & z2[A,2F2][^G,2^E2] | 
[V:1] ABAedg | 
[V:2] z2[A,2F2]D,2 | 
[V:1] fba^c'd'b | 
[V:2] z2[A,2F2]D,2 | 
[V:1] abafge | 
[V:2] z2[A,2^C2G2]D,2 | 
[V:1] fdeBcE | 
[V:2] z2[A,2=C2F2]D,2 | 
[V:1] DEDAGc | 
[V:2] z2[D,2B,2]G,,2 | 
[V:1] Bedfge | 
[V:2] z2[D,2B,2]G,,2 | 
[V:1] dedBcA | 
[V:2] z2[D,2F,2C2]G,,2 | 
[V:1] BFGFGE | 
[V:2] z2G,4 & z2[D,2B,2][^C,2^A,2] | 
[V:1] DEDAGc | 
[V:2] z2[D,2B,2]G,,2 | 
[V:1] Bedfge | 
[V:2] z2[D,2B,2]G,,2 | 
[V:1] dedBcA | 
[V:2] z2[D,2F,2C2]G,,2- | 
[V:1] BFGFEB & z2D2^C2 | 
[V:2] G,,2[E,2B,2][A,,2G,2] | 
[V:1] ABAedg | 
[V:2] z2[A,2F2]D,2 | 
[V:1] fba^c'd'b | 
[V:2] z2[A,2F2]D,2 | 
[V:1] abafge | 
[V:2] z2[A,2^C2G2]D,2 | 
[V:1] f^cdcdB | 
[V:2] z2[A,2F2][^G,2^E2] & z2D4 | 
[V:1] ABAedg | 
[V:2] z2[A,2F2]D,2 | 
[V:1] fba^c'd'b | 
[V:2] z2[A,2F2]D,2 | 
[V:1] afgbaf | 
[V:2] z6 | 
[V:1] degfdA | 
[V:2] z6 | 
[V:1] _BdAFBd | 
[V:2] z6 | 
[V:1] AF_BdAF | 
[V:2] z6 | 
[V:1] A_d_A=F=Ad | 
[V:2] z6 | 
[V:1] _A=F=A_d_AF | 
[V:2] z6 | 
[V:1] _AcGEGB | 
[V:2] z6 | 
[V:1] F^DF_B=F=D | 
[V:2] z6 | 
[V:1] =FAE^CE^G | 
[V:2] z6 | 
[V:1] ^D^B,E^GD=B, | 
[V:2] z6 | 
[V:1]  [K:B] G4F2 & E6 | 
[V:2]  [K:B] ECG,2A,2 | 
[V:1] F>FF2F2 & D6 | 
[V:2] B,A,B,2C2 | 
[V:1] F>FF2E2 & =D6 | 
[V:2] =DB,F,2G,2 | 
[V:1] E>EE2E2 & C6 | 
[V:2] =A,G,A,2B,2 | 
[V:1] E>EE3=D- & =C6 | 
[V:2] =C=A,E,2F,2 | 
[V:1] D>EF2=G2 & B,6 | 
[V:2] =G,6 & z2[=G,,4=D,4]- | 
[V:1] E>F=G2[F2=A2] & =C6 | 
[V:2] =A,6 & [G,,2D,2][=G,,4=D,4]- | 
[V:1] B>=dd4 & =G4=D2 | 
[V:2] B,6 & [G,,2D,2][=G,,4=D,4]- | 
[V:1] E>EE3=D- & =C6 | 
[V:2] =C=A,E,2F,2 & [G,,6D,6]- | 
[V:1] D>EF2=G2 & B,6 | 
[V:2] =G,6 & [G,,2D,2][=G,,4=D,4]- | 
[V:1] E>F=G2[F2=A2] & =C6 | 
[V:2] =A,6 & [G,,2D,2][=G,,4=D,4]- | 
[V:1] B>c^^c2d2 & ^E4F2 | 
[V:2] [G,,2D,2B,2]=G,,2F,,2- | 
[V:1] =e>cG2A2 & [=E2G2]E4 | 
[V:2] .[F,,,2F,,2]F,3F,[K:clef=treble] | 
[V:1] Fz/G/A2B2 & D2D4 | 
[V:2] F,z/F/F4- & F,4F,2- | 
[V:1] Gz/A/[G2B2][A2c2] & E2E4 | 
[V:2] Fz/F/F4[K:clef=bass] & F,4F,2 | 
[V:1] [DBd]z/[F/B/f/][F2B2f2][G2B2g2] | 
[V:2] .B,, z/ D/D2E2 | 
[V:1] [FBf]z/[D/F/d/][D2G2B2][E2G2e2] | 
[V:2] Dz/B,/G,2C2 | 
[V:1] [DGd]z/[D/G/B/][E2G2][D2B2] | 
[V:2] z2B,4 & B,z/G,/E,2[B,,2F,2] | 
[V:1] [EFc]z/d/[E3F3c3][DB] | 
[V:2] A,z/F,,/A,3.[B,,B,] | 
[V:1] [DB] z/ G/G2AG & z2E4 | 
[V:2] z2B,2CB, & [B,,B,] zE,4 | 
[V:1] [EF]z/c/[E2F2c2]f2 | 
[V:2] [F,A,]z/F,,/A,2F,,2 | 
[V:1] ^efg2f2 & A6 | 
[V:2] [F,6C6=E6] | 
[V:1] [db][=Af][F2d2][=E2c2] | 
[V:2] z2[B,,,4F,,4]- | 
[V:1] BA[D2B2]z2 & D=Az2[=A2f2] | 
[V:2] [B,,,2F,,2][B,,,4B,,4]- | 
[V:1] [G^e][^E^^c][=D2B2][CA][B,G] | 
[V:2] [B,,,2B,,2][B,,,2^E,,2]=D,2 | 
[V:1] F^E[A,2F2][=E2c2] & A,=Ez2z2 | 
[V:2] z2[F,,2E,2]B,,,2 | 
[V:1] [DB][=A,F]z2z2 | 
[V:2] z2[F,2D2][G,2C2] & z2[B,,,2B,,2][E,,2B,,2] | 
[V:1] B,DF2GF | 
[V:2] =A,6 & [F,,2B,,2]B,,,2z2 | 
[V:1] [G,^E][B,G][=D2B2][CA][B,G] | 
[V:2] z2C,,2^E,2 | 
[V:1] [A,=EF][CA][Ec][Ge][Fd][Ec] | 
[V:2] F,z/C,/F,,2z2 | 
[V:1] [Fd]z/[D/B/][F2d2][G2e2] | 
[V:2] .B,,z/F,/B,2E,2 | 
[V:1] [A,EF]z/[C/A/][Ec][Ge][Fd][Ec] | 
[V:2] F,z/C,/F,,2A,2 | 
[V:1] [Fd]z/[D/B/][F2d2][G2e2] | 
[V:2] .B,,z/F,/B,2E,2 | 
[V:1] [A,EF]z/[C/A/][Ec][Ge][Bg][Acf] | 
[V:2] F,z/C,/F,,2[F,2E2] | 
[V:1] [DBd]z/[D/B/][F2B2f2][B2g2] | 
[V:2] .B,,z/F,/D2[^^C2^E2] | 
[V:1] [Bf]z/[B/d/][B2f2][B2g2] | 
[V:2] [DF]z/[B,/F/][D2F2][^^C2^E2] | 
[V:1] [Bf]z/[B/d/][B2f2][B2g2] | 
[V:2] [DF]z/[B,/F/][D2F2][C2^E2] | 
[V:1] [Af]z/[B/g/][A2f2][B2g2] | 
[V:2] [F,F]z/[C/^E/][F,2F2][C2E2] | 
[V:1] [Af]z/[=e/f/][d2b2][c2a2] | 
[V:2] [F,F] z/[K:clef=treble] [F/c/][B,2F2][D2^^F2][K:clef=bass] | 
[V:1] [Bg]z/[c/^^f/][B2g2]a2 & z2G2cB | 
[V:2] [G,G]z/[D/A/]G,2[C2^E2] | 
[V:1] [Af]z/[B/^e/][A2f2][=A2g2] & Fz/G/F2z2 | 
[V:2] F,z/C/F,2[B,2D2] | 
[V:1] [G=e]z/[E/c/]e2dc & z2G2^^F2 | 
[V:2] [E,E]z/[A,/C/]A,,2[D,2A,2] | 
[V:1] [GB]z/[G/d/][B2g2][=A2f2] | 
[V:2] [G,,B,]z/B,/[G,2D2][B,,2D2] | 
[V:1] [Ge]z/[=A/d/]e2fe & z2G2G2 | 
[V:2] [E,B,E]z/[F,/B,/][E,2B,2][A,,2C2] | 
[V:1] [^^Fd]z/[G/^^c/][F2d2]e2 & z2z2G^F | 
[V:2] [D,A,]z/[E,/A,/][D,2A,2][G,,2^B,2] | 
[V:1] [Ec]z/[E/G/][G2e2][Fd][Ec] | 
[V:2] [C,C]z/[C,/=B,/][C,2B,2][F,,2A,2] | 
[V:1] [DBd]z/[B/f/][d2b2][c2a2] & z2^EF^^FD | 
[V:2] .[B,,F,] zz2z2 | 
[V:1] [Bg]z/[c/^^f/][B2g2][c2a2] | 
[V:2] GDG,F^EC | 
[V:1] fz/^e/z2z2 & Az/B/[A2f2][=A2g2] | 
[V:2] FCF,=EDB, | 
[V:1] [G=e]z/[E/c/]z2dc & z2[G2e2]^^F2 | 
[V:2] E,DCA,D,A, | 
[V:1] [GB]z/[G/d/][=B2g2][=A2f2] | 
[V:2] [G,,B,]z/B,/^B,C^^CD | 
[V:1] z2z2fe & [Ge]z/[=A/d/][G2e2]G2 | 
[V:2] E=B,E,DCA,, | 
[V:1] [^^Fd]z/[G/^^c/][F2d2]e2 & z2z2G^F | 
[V:2] D,A,DA,^B,G,, | 
[V:1] [Ec]z/[E/G/][G2e2][Fd][Ec] | 
[V:2] C,=B,^B,,C,A,F,, | 
[V:1] [Fd]z/[D/B/][F2d2][G2e2] | 
[V:2] =B,,z/F,/B,2E,2 | 
[V:1] !accent![A,EF]z/[C/A/][Ec][Ge][Fd][Ec] | 
[V:2] F,z/C,/F,,2A,2 | 
[V:1] [Fd][DB] [Fd] z[G2e2] | 
[V:2] B,,F, B, zE,2 | 
[V:1] [A,EF]z/[C/A/][Ec][Ge][Fd][Ec] | 
[V:2] F,z/C,/F,,2A,2 | 
[V:1] [Fd]z/[D/B/][F2d2][B2b2] | 
[V:2] [B,,,B,,]z/F,/B,2D2 | 
[V:1] [Fd]z/[D/B/][F2d2][f2f'2] | 
[V:2] B,,z/F,/B,2[K:clef=treble][D2B2][K:clef=bass] | 
[V:1] [D2B2]!accent![b2b'2]z2 | 
[V:2] [B,,2F,2][K:clef=treble]!accent![F2B2d2f2]z2[K:clef=bass] | 
[V:1] D zD4 |]  
[V:2] F,z/[D,/-B,/][D,4F,4] & B,,z/F,,/-[B,,,4F,,4] |]  


